img/main/main-icon-1.svg

<svg width="36" height="31" viewBox="0 0 36 31" fill="none" xmlns="http://www.w3.org/2000/svg">
<path d="M20.0847 25.0884H2.3064" stroke="white" stroke-miterlimit="10"/>
<path d="M-7.47428 25.0885H-10.5511C-11.4986 25.0885 -12.2627 24.3154 -12.2627 23.3795V2.70898C-12.2627 1.76294 -11.4986 1 -10.5511 1H22.326C22.7845 1 23.2124 1.1831 23.5384 1.49845L34.5008 12.4441C34.8268 12.7696 35 13.1968 35 13.6546V23.3795C35 24.3255 34.2359 25.0885 33.2884 25.0885H29.8652" stroke="white" stroke-miterlimit="10"/>
<path d="M26.0243 3.99072H-8.05495C-8.51342 3.99072 -8.89038 4.3671 -8.89038 4.82487V10.5113C-8.89038 10.9691 -8.51342 11.3454 -8.05495 11.3454H33.3802" stroke="white" stroke-miterlimit="10"/>
<path d="M17.0181 3.99072V25.0885" stroke="white" stroke-miterlimit="10"/>
<path d="M-2.58406 29.9712C0.116776 29.9712 2.30624 27.7851 2.30624 25.0884C2.30624 22.3917 0.116776 20.2056 -2.58406 20.2056C-5.2849 20.2056 -7.47437 22.3917 -7.47437 25.0884C-7.47437 27.7851 -5.2849 29.9712 -2.58406 29.9712Z" stroke="white" stroke-miterlimit="10"/>
<path d="M24.975 29.9712C27.6759 29.9712 29.8653 27.7851 29.8653 25.0884C29.8653 22.3917 27.6759 20.2056 24.975 20.2056C22.2742 20.2056 20.0847 22.3917 20.0847 25.0884C20.0847 27.7851 22.2742 29.9712 24.975 29.9712Z" stroke="white" stroke-miterlimit="10"/>
<path d="M35 15.4043H30.9859C30.4459 15.4043 30.0078 15.8417 30.0078 16.3809V17.9067C30.0078 18.4459 30.4459 18.8833 30.9859 18.8833H35" stroke="white" stroke-miterlimit="10"/>
<path d="M22.7641 15.4043H19.5039" stroke="white" stroke-miterlimit="10"/>
<path d="M35.0001 22.1079H31.8826" stroke="white" stroke-miterlimit="10"/>
<path d="M25.9021 25.0884H24.4248" stroke="white" stroke-miterlimit="10"/>
</svg>

<svg width="36" height="31" fill="none" xmlns="http://www.w3.org/2000/svg"><path d="M20.085 25.088H2.306M-7.474 25.088h-3.077a1.714 1.714 0 0 1-1.712-1.709V2.71c0-.946.764-1.709 1.712-1.709h32.877c.459 0 .886.183 1.212.498l10.963 10.946c.326.326.499.753.499 1.21v9.726c0 .946-.764 1.709-1.712 1.709h-3.423" stroke="#fff" stroke-miterlimit="10"/><path d="M26.024 3.99H-8.055a.839.839 0 0 0-.835.835v5.686c0 .458.377.834.835.834H33.38M17.018 3.99V25.09M-2.584 29.971c2.7 0 4.89-2.186 4.89-4.883a4.887 4.887 0 0 0-4.89-4.882c-2.7 0-4.89 2.186-4.89 4.882a4.887 4.887 0 0 0 4.89 4.883zM24.975 29.971c2.7 0 4.89-2.186 4.89-4.883a4.887 4.887 0 0 0-4.89-4.882c-2.7 0-4.89 2.186-4.89 4.882a4.887 4.887 0 0 0 4.89 4.883zM35 15.404h-4.014a.978.978 0 0 0-.978.977v1.526c0 .539.438.976.978.976H35M22.764 15.404h-3.26M35 22.108h-3.117M25.902 25.088h-1.477" stroke="#fff" stroke-miterlimit="10"/></svg>
